X:1
T:Happy the souls to Jesus joined
T:Happy the souls to Jesus joined - Happy Union (Thomas Jarman)
C:Thomas Jarman
Z:Text: Charles Wesley
%%score [ 1 2 3 4 ]
L:1/8
M:2/2
K:D
V:1 treble nm="Soprano" snm="S."
V:2 treble nm="Alto" snm="A."
V:3 treble-8 transpose=-12 nm="Tenor" snm="T."
V:4 bass nm="Bass" snm="B."
V:1
 D4 F2 A2 | B4 A4 | (B2 e2) (d2 c2) | d4 z2 f2 | e4 A4 | d4 (c2 B2) | c4 e4 | A4 d4 | c4 B4 | A8 | %10
w: Thee in thy|glo- rious|realm _ they _|praise, And|bow be-|fore thy _|throne, and|bow be-|fore thy|throne,|
w: Hap- py the|souls to|Je- * sus _|join’d, And|sav’d by|grace a- *|lone, and|sav’d by|grace a-|lone:|
w: The church tri-|um- phant|in _ thy _|love, Their|migh- ty|joys we _|know, their|migh- ty|joys we|know;|
 A4 B2 c2 | d4 (de f2) | (e2 d2 c2) d2 | e4 z2 c2 | d3 c d2 =c2 | B4 z2 B2 | e3 ^d e2 =d2 | %17
w: We, in the|king- dom _ _|of _ _ thy|grace; The|king- doms are but|one, the|king- doms are but|
w: Walk- ing in|all his _ _|ways _ _ they|find Their|heav’n on earth be-|gun, their|heav’n on earth be-|
w: They sing the|Lamb in _ _|hymns _ _ a-|bove, And|we in hymns be-|low, and|we in hymns be-|
 c4 z2 A2 | d4 f4 | B4 e4 | d4 c4 | d8 |] %22
w: one, the|king- doms,|king- doms|are but|one.|
w: gun, their|heav’n, their|heav’n on|earth be-|gun.|
w: low, and|we, and|we in|hymns be-|low.|
V:2
 A,4 D2 F2 | G4 D4 | G4 (F2 E2) | F4 z2 A2 | A4 E4 | F4 E4 | E4 A4 | F4 B4 | A4 ^G4 | A8 | %10
w: Thee in thy|glo- rious|realm they _|praise, And|bow be-|fore thy|throne, and|bow be-|fore thy|throne,|
w: Hap- py the|souls to|Je- sus _|join’d, And|sav’d by|grace a-|lone, and|sav’d by|grace a-|lone:|
w: The church tri-|um- phant|in thy _|love, Their|migh- ty|joys we|know, their|migh- ty|joys we|know;|
 F4 G2 A2 | A4 A4 | A4 A4 | A4 z2 A2 | F3 E F2 F2 | G4 z2 A2 | ^G3 F G2 G2 | A4 z2 A2 | A4 A4 | %19
w: We, in the|king- dom|of thy|grace; The|king- doms are but|one, the|king- doms are but|one, the|king- doms,|
w: Walk- ing in|all his|ways they|find Their|heav’n on earth be-|gun, their|heav’n on earth be-|gun, their|heav’n, their|
w: They sing the|Lamb in|hymns a-|bove, And|we in hymns be-|low, and|we in hymns be-|low, and|we, and|
 B4 B4 | E4 E4 | F8 |] %22
w: king- doms|are but|one.|
w: heav’n on|earth be-|gun.|
w: we in|hymns be-|low.|
V:3
 F4 A2 d2 | d4 d4 | (d2 B2) A4 | A4 z2 d2 | c4 [Ae]4 | A4 (A2 ^G2) | A4 A4 | d4 f4 | e4 (e2 d2) | %9
w: Thee in thy|glo- rious|realm _ they|praise, And|bow be-|fore thy _|throne, and|bow be-|fore thy _|
w: Hap- py the|souls to|Je- * sus|join’d, And|sav’d by|grace a- *|lone, and|sav’d by|grace a- *|
w: The church tri-|um- phant|in _ thy|love, Their|migh- ty|joys we _|know, their|migh- ty|joys we _|
 c8 | d4 d2 e2 | d4 (fe d2) | (c2 d2 e2) d2 | c4 z4 | z4 z2 d2 | d3 d B2 B2 | B4 z2 e2 | %17
w: throne,|We, in the|king- dom _ _|of _ _ thy|grace;|The|king- doms are but|one, the|
w: lone:|Walk- ing in|all his _ _|ways _ _ they|find|Their|heav’n on earth be-|gun, their|
w: know;|They sing the|Lamb in _ _|hymns _ _ a-|bove,|And|we in hymns be-|low, and|
 e3 e c2 c2 | d4 d4 | d4 B4 | A4 A4 | A8 |] %22
w: king- doms are but|one, the|king- doms|are but|one.|
w: heav’n on earth be-|gun, their|heav’n on|earth be-|gun.|
w: we in hymns be-|low, and|we in|hymns be-|low.|
V:4
 D,4 D,2 D,2 | G,4 F,4 | G,4 A,4 | D,4 z2 D,2 | A,4 C,4 | D,4 E,4 | A,4 C,4 | D,4 D,4 | E,4 E,4 | %9
w: Thee in thy|glo- rious|realm they|praise, And|bow be-|fore thy|throne, and|bow be-|fore thy|
w: Hap- py the|souls to|Je- sus|join’d, And|sav’d by|grace a-|lone, and|sav’d by|grace a-|
w: The church tri-|um- phant|in thy|love, Their|migh- ty|joys we|know, their|migh- ty|joys we|
 A,,8 | D,4 G,2 E,2 | F,4 D,4 | A,6 A,2 | A,4 z4 | z4 z2 D,2 | %15
w: throne,|We, in the|king- dom|of thy|grace;|The|
w: lone:|Walk- ing in|all his|ways they|find|Their|
w: know;|They sing the|Lamb in|hymns a-|bove,|And|
"^The source gives the parts in the order Tenor - Alto - Treble - Bass (labelled as such in the first piece in the book).The treble and bass parts are bracketed together, with small notes between them to fill in the harmony of a keyboardpart doubling the voices. This accompaniment has been omitted from the present edition. Only the first verse of thetext is underlaid in the source: three subsequent verses have been added editorially." G,3 F, G,2 F,2 | %16
w: king- doms are but|
w: heav’n on earth be-|
w: we in hymns be-|
 E,4 z2 E,2 | A,3 ^G, A,2 =G,2 | F,4 D,4 | G,4 G,4 | A,4 A,,4 | D,8 |] %22
w: one, the|king- doms are but|one, the|king- doms|are but|one.|
w: gun, their|heav’n on earth be-|gun, their|heav’n on|earth be-|gun.|
w: low, and|we in hymns be-|low, and|we in|hymns be-|low.|

